deepin/status/network-mobile-unknown-offline-symbolic.svg

<?xml version="1.0" encoding="UTF-8" standalone="no"?>
<svg width="16px" height="16px" viewBox="0 0 16 16" version="1.1" xmlns="http://www.w3.org/2000/svg" xmlns:xlink="http://www.w3.org/1999/xlink">
    <!-- Generator: Sketch 39.1 (31720) - http://www.bohemiancoding.com/sketch -->
    <title>network-mobile-unknown-off</title>
    <desc>Created with Sketch.</desc>
    <defs></defs>
    <g id="Page-1" stroke="none" stroke-width="1" fill="none" fill-rule="evenodd">
        <g id="network-mobile-unknown-off">
            <g id="Group-60">
                <polygon id="Fill-382" points="0 16 16 16 16 0 0 0"></polygon>
                <path d="M7.7568,12.0554 C7.5328,12.0554 7.3518,12.1334 7.1858,12.3004 C7.0168,12.4724 6.9388,12.6664 6.9388,12.9094 C6.9388,13.1654 7.0178,13.3674 7.1868,13.5424 C7.3538,13.7144 7.5408,13.7934 7.7708,13.7934 C8.0138,13.7934 8.2078,13.7134 8.3788,13.5394 C8.5528,13.3654 8.6328,13.1644 8.6328,12.9094 C8.6328,12.6664 8.5528,12.4734 8.3808,12.3034 C8.2108,12.1344 8.0118,12.0554 7.7568,12.0554" id="Fill-383" fill-opacity="0.3" fill="#FFFFFF"></path>
                <path d="M10.4296,4.335 C10.1816,3.912 9.8476,3.586 9.4356,3.365 C9.0176,3.141 8.4956,3.028 7.8846,3.028 C6.9306,3.028 6.1626,3.307 5.6006,3.858 C5.1866,4.256 4.9266,4.713 4.8116,5.245 C4.7916,5.338 4.7636,5.531 5.0446,5.531 L5.6076,5.531 C5.8726,5.531 5.8956,5.371 5.9226,5.295 C6.0166,5.027 6.1726,4.793 6.3866,4.593 C6.7586,4.249 7.2286,4.075 7.7826,4.075 C8.3216,4.075 8.7686,4.221 9.1106,4.507 C9.4766,4.812 9.6636,5.193 9.6636,5.64 C9.6636,5.966 9.5886,6.254 9.4386,6.499 C9.3046,6.715 8.9806,7.049 8.4216,7.55 C7.9376,7.997 7.5816,8.475 7.3636,8.972 C7.1566,9.444 7.0466,9.977 7.0366,10.557 C7.0366,10.557 6.9346,11.014 7.4036,11.014 L7.8576,11.014 C8.0556,11.014 8.1696,10.871 8.1866,10.654 C8.2056,10.41 8.2466,10.072 8.3326,9.734 C8.4116,9.426 8.5226,9.166 8.6526,8.961 C8.7846,8.755 9.0596,8.457 9.5206,8.021 C10.0366,7.544 10.2276,7.314 10.2996,7.201 C10.4806,6.936 10.6116,6.68 10.6896,6.44 C10.7666,6.196 10.8056,5.947 10.8056,5.698 C10.8056,5.219 10.6796,4.761 10.4296,4.335" id="Fill-384" fill-opacity="0.3" fill="#FFFFFF"></path>
                <path d="M2.5086,12.0975 C2.3626,12.0975 2.2166,12.0335 2.1176,11.9105 C1.3256,10.9185 0.9076,9.7385 0.9076,8.4955 C0.9076,7.2645 1.3206,6.0925 2.0986,5.1075 C2.2706,4.8885 2.5846,4.8545 2.8006,5.0245 C3.0176,5.1965 3.0546,5.5105 2.8836,5.7265 C2.2446,6.5345 1.9076,7.4925 1.9076,8.4955 C1.9076,9.5095 2.2506,10.4735 2.8996,11.2855 C3.0716,11.5005 3.0366,11.8155 2.8206,11.9885 C2.7286,12.0615 2.6176,12.0975 2.5086,12.0975" id="Fill-386" fill-opacity="0.3" fill="#FFFFFF"></path>
                <path d="M4.118,10.5779 C3.995,10.5779 3.872,10.5329 3.775,10.4419 C3.226,9.9259 2.925,9.2389 2.925,8.5079 C2.925,7.7749 3.227,7.0879 3.776,6.5729 C3.975,6.3839 4.295,6.3919 4.482,6.5959 C4.672,6.7969 4.662,7.1129 4.46,7.3019 C4.115,7.6259 3.925,8.0549 3.925,8.5079 C3.925,8.9609 4.115,9.3889 4.461,9.7139 C4.662,9.9029 4.672,10.2199 4.482,10.4209 C4.384,10.5249 4.251,10.5779 4.118,10.5779" id="Fill-387" fill-opacity="0.3" fill="#FFFFFF"></path>
                <path d="M13.3309,12.0975 C13.2219,12.0975 13.1109,12.0615 13.0189,11.9885 C12.8029,11.8155 12.7679,11.5005 12.9399,11.2855 C13.5889,10.4735 13.9319,9.5095 13.9319,8.4955 C13.9319,7.4925 13.5949,6.5345 12.9559,5.7265 C12.7849,5.5105 12.8219,5.1965 13.0389,5.0245 C13.2539,4.8545 13.5689,4.8885 13.7409,5.1075 C14.5189,6.0925 14.9319,7.2645 14.9319,8.4955 C14.9319,9.7385 14.5139,10.9185 13.7219,11.9105 C13.6229,12.0335 13.4769,12.0975 13.3309,12.0975" id="Fill-389" fill-opacity="0.3" fill="#FFFFFF"></path>
                <path d="M11.7215,10.5779 C11.5885,10.5779 11.4555,10.5249 11.3575,10.4209 C11.1675,10.2199 11.1775,9.9029 11.3785,9.7139 C11.7235,9.3899 11.9135,8.9609 11.9135,8.5079 C11.9135,8.0539 11.7245,7.6259 11.3795,7.3019 C11.1775,7.1129 11.1675,6.7969 11.3575,6.5959 C11.5455,6.3919 11.8645,6.3839 12.0635,6.5729 C12.6125,7.0869 12.9135,7.7739 12.9135,8.5079 C12.9135,9.2399 12.6125,9.9269 12.0645,10.4419 C11.9675,10.5329 11.8445,10.5779 11.7215,10.5779" id="Fill-390" fill-opacity="0.3" fill="#FFFFFF"></path>
            </g>
        </g>
    </g>
</svg>

<?xml version="1.0" encoding="iso-8859-1"?>
<!-- Generator: Adobe Illustrator 18.0.0, SVG Export Plug-In . SVG Version: 6.00 Build 0)  -->
<!DOCTYPE svg PUBLIC "-//W3C//DTD SVG 1.1//EN" "http://www.w3.org/Graphics/SVG/1.1/DTD/svg11.dtd">
<svg version="1.1" id="&#x56FE;&#x5C42;_1" xmlns="http://www.w3.org/2000/svg" xmlns:xlink="http://www.w3.org/1999/xlink" x="0px"
	 y="0px" viewBox="0 0 15.994 15.994" style="enable-background:new 0 0 15.994 15.994;" xml:space="preserve">
<g style="opacity:0.3;">
	<g>
		<g>
			<path style="fill:#FFFFFF;" d="M7.757,12.072c-0.224,0-0.405,0.078-0.571,0.245c-0.169,0.172-0.247,0.365-0.247,0.609
				c0,0.256,0.079,0.458,0.248,0.633c0.167,0.172,0.354,0.251,0.585,0.251c0.243,0,0.437-0.08,0.608-0.254
				c0.173-0.174,0.253-0.375,0.253-0.63c0-0.243-0.08-0.436-0.251-0.606C8.211,12.151,8.012,12.072,7.757,12.072z"/>
		</g>
		<g>
			<path style="fill:#FFFFFF;" d="M10.43,4.352c-0.248-0.423-0.582-0.749-0.994-0.97c-0.418-0.224-0.94-0.337-1.552-0.337
				c-0.954,0-1.722,0.279-2.284,0.829C5.187,4.273,4.926,4.73,4.812,5.262c-0.02,0.093-0.048,0.286,0.233,0.286
				c0.155,0,0.386,0,0.562,0c0.266,0,0.288-0.16,0.315-0.235c0.094-0.268,0.25-0.503,0.464-0.702
				c0.372-0.344,0.842-0.518,1.397-0.518c0.538,0,0.985,0.146,1.328,0.432C9.477,4.829,9.664,5.21,9.664,5.656
				c0,0.327-0.075,0.615-0.225,0.859C9.305,6.731,8.981,7.066,8.422,7.567c-0.484,0.447-0.84,0.925-1.058,1.422
				c-0.207,0.472-0.317,1.006-0.327,1.585c0,0-0.102,0.457,0.367,0.457c0.179,0,0.332,0,0.454,0c0.198,0,0.312-0.142,0.329-0.359
				c0.019-0.244,0.06-0.582,0.146-0.92c0.079-0.309,0.19-0.568,0.32-0.773C8.785,8.772,9.06,8.474,9.521,8.038
				c0.516-0.477,0.707-0.707,0.778-0.82c0.182-0.265,0.313-0.521,0.391-0.761c0.077-0.243,0.116-0.493,0.116-0.742
				C10.806,5.236,10.68,4.778,10.43,4.352z"/>
		</g>
	</g>
</g>
<g style="opacity:0.3;">
	<g>
		<path style="fill:#FFFFFF;" d="M2.509,12.114c-0.146,0-0.292-0.064-0.391-0.188c-0.792-0.991-1.21-2.172-1.21-3.414
			c0-1.231,0.412-2.403,1.19-3.389C2.27,4.905,2.585,4.871,2.801,5.041c0.217,0.172,0.254,0.486,0.083,0.702
			c-0.639,0.808-0.976,1.766-0.976,2.77c0,1.014,0.343,1.978,0.991,2.789c0.173,0.216,0.138,0.53-0.078,0.703
			C2.728,12.078,2.618,12.114,2.509,12.114z"/>
	</g>
	<g>
		<path style="fill:#FFFFFF;" d="M4.118,10.595c-0.123,0-0.246-0.045-0.343-0.136C3.226,9.942,2.925,9.256,2.925,8.524
			c0-0.732,0.303-1.42,0.852-1.935C3.975,6.4,4.295,6.409,4.482,6.612C4.672,6.813,4.662,7.13,4.46,7.318
			C4.115,7.642,3.925,8.071,3.925,8.524s0.19,0.881,0.536,1.206c0.201,0.189,0.211,0.506,0.021,0.707
			C4.384,10.542,4.251,10.595,4.118,10.595z"/>
	</g>
</g>
<g style="opacity:0.3;">
	<g>
		<path style="fill:#FFFFFF;" d="M13.331,12.114c-0.109,0-0.22-0.036-0.313-0.109c-0.216-0.173-0.251-0.487-0.078-0.703
			c0.648-0.812,0.991-1.775,0.991-2.789c0-1.004-0.337-1.962-0.976-2.77c-0.171-0.216-0.134-0.53,0.083-0.702
			c0.215-0.17,0.53-0.136,0.702,0.083c0.778,0.985,1.19,2.157,1.19,3.389c0,1.242-0.418,2.423-1.21,3.414
			C13.623,12.05,13.477,12.114,13.331,12.114z"/>
	</g>
	<g>
		<path style="fill:#FFFFFF;" d="M11.721,10.595c-0.133,0-0.266-0.053-0.364-0.157c-0.189-0.201-0.18-0.518,0.021-0.707
			c0.345-0.324,0.535-0.753,0.535-1.206c0-0.454-0.189-0.882-0.534-1.206c-0.202-0.188-0.212-0.505-0.022-0.706
			c0.188-0.203,0.507-0.212,0.706-0.022c0.549,0.514,0.851,1.201,0.851,1.935c0,0.732-0.302,1.419-0.85,1.935
			C11.968,10.55,11.845,10.595,11.721,10.595z"/>
	</g>
</g>
</svg>
